src/assets/outline/TrendUp.svg

<svg width="24" height="24" viewBox="0 0 24 24"  xmlns="http://www.w3.org/2000/svg">
<path d="M7.49994 15.2504C7.30994 15.2504 7.11994 15.1804 6.96994 15.0304C6.67994 14.7404 6.67994 14.2604 6.96994 13.9704L10.1699 10.7704C10.3299 10.6104 10.5399 10.5304 10.7699 10.5504C10.9899 10.5704 11.1899 10.6904 11.3199 10.8804L12.4099 12.5204L15.9599 8.97043C16.2499 8.68043 16.7299 8.68043 17.0199 8.97043C17.3099 9.26043 17.3099 9.74043 17.0199 10.0304L12.8199 14.2304C12.6599 14.3904 12.4499 14.4704 12.2199 14.4504C11.9999 14.4304 11.7999 14.3104 11.6699 14.1204L10.5799 12.4804L8.02994 15.0304C7.87994 15.1804 7.68994 15.2504 7.49994 15.2504Z" />
<path d="M16.5 12.25C16.09 12.25 15.75 11.91 15.75 11.5V10.25H14.5C14.09 10.25 13.75 9.91 13.75 9.5C13.75 9.09 14.09 8.75 14.5 8.75H16.5C16.91 8.75 17.25 9.09 17.25 9.5V11.5C17.25 11.91 16.91 12.25 16.5 12.25Z" />
<path d="M15 22.75H9C3.57 22.75 1.25 20.43 1.25 15V9C1.25 3.57 3.57 1.25 9 1.25H15C20.43 1.25 22.75 3.57 22.75 9V15C22.75 20.43 20.43 22.75 15 22.75ZM9 2.75C4.39 2.75 2.75 4.39 2.75 9V15C2.75 19.61 4.39 21.25 9 21.25H15C19.61 21.25 21.25 19.61 21.25 15V9C21.25 4.39 19.61 2.75 15 2.75H9Z" />
</svg>

<?xml version="1.0" encoding="UTF-8"?>
<svg width="24" height="24" viewBox="0 0 24 24" xmlns="http://www.w3.org/2000/svg">
 <path d="m7.4999 15.25c-0.19 0-0.38-0.07-0.53-0.22-0.29-0.29-0.29-0.77 0-1.06l3.2-3.2c0.16-0.16 0.37-0.24 0.6-0.22 0.22 0.02 0.42 0.14 0.55 0.33l1.09 1.64 3.55-3.55c0.29-0.29 0.77-0.29 1.06 0s0.29 0.77 0 1.06l-4.2 4.2c-0.16 0.16-0.37 0.24-0.6 0.22-0.22-0.02-0.42-0.14-0.55-0.33l-1.09-1.64-2.55 2.55c-0.15 0.15-0.34 0.22-0.53 0.22z"/>
 <path d="m16.5 12.25c-0.41 0-0.75-0.34-0.75-0.75v-1.25h-1.25c-0.41 0-0.75-0.34-0.75-0.75s0.34-0.75 0.75-0.75h2c0.41 0 0.75 0.34 0.75 0.75v2c0 0.41-0.34 0.75-0.75 0.75z"/>
 <path d="m15 22.75h-6c-5.43 0-7.75-2.32-7.75-7.75v-6c0-5.43 2.32-7.75 7.75-7.75h6c5.43 0 7.75 2.32 7.75 7.75v6c0 5.43-2.32 7.75-7.75 7.75zm-6-20c-4.61 0-6.25 1.64-6.25 6.25v6c0 4.61 1.64 6.25 6.25 6.25h6c4.61 0 6.25-1.64 6.25-6.25v-6c0-4.61-1.64-6.25-6.25-6.25h-6z"/>
</svg>
